X:258
T:B258-  Johnny Armstrong
Q:1/4=120
M:3/4
L:1/4
K:Gm
(B/c/)|d2c|BGF|(FG)B|~c2(B/c/)|\
d2c3/4d/4|BGF|GBB3/4c/4|B2::d/f/|\
gf(e/4c/4B/)|~cBc|dbg|f2d|\
(cd)f|(b/2a/2)(b/2a/2) g/2f/2|dgg3/4a/4|g2f|\
g3/4a/4ba|(g/2b/2)(g/2f/2) d/2g/2|\
f3/4g/4 (f/4d3/4) ~(c3/4B/4)|c2d3/4f/4|g(b/2g/2)(f/2d/2)|\
(e/2d/2)(e/2d/2) (c/2B/2)|GB(B3/4c/4)|B2::\
L:1/4
M:6/8
B/4c/4|dc/ B/G/F/|GB/ ~c/B/c/|dc/ B/G/F/|\
GB/B::(d/4e/4)|f/d/B/ ~c/B/c/|d/b/g/ fd/|\
c/d/f/ ba/|g/a/f/ga/|b/a/g/ f/b/g/|\
f/d/B/ c/B/c/|dg/ f/d/c/|B/c/A/G:|]

